X: 42071
T: Waltz Of The Little Raccoons
R: waltz
M: 3/4
K: Aminor
FG|:"F" A c3 A2|"Dm" d4 FG|"Am" A c2B AG|"Em" E4 EG|
"Am" A c3 A2|"Dm" d2e2f2|"Em" e6-|e3 dcB|"Am" A c3 A2|"Dm" d4 ef|
"C" e c3 B2|"Am" A4 ge|"Em" d2 B2 G2|E2 F2 E2|"Am" A6-|1 A3 GFG:|2 A6||
|:"Am" a4 ag|"D" ^f2 d4|"G" d2 g2 "D"^f2|"C" e6|
e2 f3 g|ed c2- cB|"Am" A c3 A2|"Dm" d3 efg|
"Am" a4 ag|"D" ^f2 d4|"G" (d2 g2) "D" a2|"Bm" b4 z e|
"Bm" dc BA "G"GF|"C"E2 F2 "Em"G2|"Am" A6|1 A3 Aeg:|2 A4 FG||

